X: 1
T: Hare's Paw, The
M: 4/4
L: 1/8
K: G
~G3B A2 GA|B~E3 GEDE|~G3A BABd|egfd edBA
~G3B A2 GA|B~E3 GEDE|~G3A BABd|egfd e3 f||
g2 fg edBc|d2 ed Bdef|g2 fg edBd|egfd e3f|
g2 fg edBc|d2 ed B~d3|e3f edBd|egfd edBA||
